apps/www/public/images/realtime/example-apps/light/multiplayer-game.svg

<svg width="361" height="210" viewBox="0 0 361 210" fill="none" xmlns="http://www.w3.org/2000/svg">
<g clip-path="url(#clip0_1125_17722)">
<path d="M58.5083 21.4134H302.492C305.575 21.4134 308.087 23.9576 308.087 27.1109V309.889C308.087 313.042 305.575 315.587 302.492 315.587H58.5083C55.4249 315.587 52.9134 313.042 52.9134 309.889V27.1109C52.9134 23.9576 55.4249 21.4134 58.5083 21.4134Z" fill="white" stroke="#ECEEF0" stroke-width="0.826794"/>
<path d="M116.5 21H84.5V53H116.5V21Z" fill="#D7DBDF"/>
<path d="M180.5 21H148.5V53H180.5V21Z" fill="#D7DBDF"/>
<path d="M244.5 21H212.5V53H244.5V21Z" fill="#D7DBDF"/>
<path d="M308.5 26.9164V53H276.5V21H302.379C305.756 21 308.5 23.6467 308.5 26.9164Z" fill="#D7DBDF"/>
<path d="M116.5 85H84.5V117H116.5V85Z" fill="#D7DBDF"/>
<path d="M180.5 85H148.5V117H180.5V85Z" fill="#D7DBDF"/>
<path d="M244.5 85H212.5V117H244.5V85Z" fill="#D7DBDF"/>
<path d="M308.5 85H276.5V117H308.5V85Z" fill="#D7DBDF"/>
<path d="M116.5 149H84.5V181H116.5V149Z" fill="#D7DBDF"/>
<path d="M180.5 149H148.5V181H180.5V149Z" fill="#D7DBDF"/>
<path d="M244.5 149H212.5V181H244.5V149Z" fill="#D7DBDF"/>
<path d="M308.5 149H276.5V181H308.5V149Z" fill="#D7DBDF"/>
<path d="M84.5 181H52.5V213H84.5V181Z" fill="#D7DBDF"/>
<path d="M148.5 181H116.5V213H148.5V181Z" fill="#D7DBDF"/>
<path d="M212.5 181H180.5V213H212.5V181Z" fill="#D7DBDF"/>
<path d="M276.5 181H244.5V213H276.5V181Z" fill="#D7DBDF"/>
<path d="M84.5 117H52.5V149H84.5V117Z" fill="#D7DBDF"/>
<path d="M148.5 117H116.5V149H148.5V117Z" fill="#D7DBDF"/>
<path d="M212.5 117H180.5V149H212.5V117Z" fill="#D7DBDF"/>
<path d="M276.5 117H244.5V149H276.5V117Z" fill="#D7DBDF"/>
<path d="M84.5 53H52.5V85H84.5V53Z" fill="#D7DBDF"/>
<path d="M148.5 53H116.5V85H148.5V53Z" fill="#D7DBDF"/>
<path d="M212.5 53H180.5V85H212.5V53Z" fill="#D7DBDF"/>
<path d="M276.5 53H244.5V85H276.5V53Z" fill="#D7DBDF"/>
<path d="M68.5947 45.1895C73.6176 45.1895 77.6895 41.1176 77.6895 36.0947C77.6895 31.0719 73.6176 27 68.5947 27C63.5718 27 59.5 31.0719 59.5 36.0947C59.5 41.1176 63.5718 45.1895 68.5947 45.1895Z" fill="#9BA1A6"/>
<path d="M68.5947 78.1895C73.6176 78.1895 77.6895 74.1176 77.6895 69.0947C77.6895 64.0719 73.6176 60 68.5947 60C63.5718 60 59.5 64.0719 59.5 69.0947C59.5 74.1176 63.5718 78.1895 68.5947 78.1895Z" fill="#9BA1A6"/>
<path d="M100.595 78.1895C105.618 78.1895 109.689 74.1176 109.689 69.0947C109.689 64.0719 105.618 60 100.595 60C95.5718 60 91.5 64.0719 91.5 69.0947C91.5 74.1176 95.5718 78.1895 100.595 78.1895Z" fill="#9BA1A6"/>
<path d="M132.595 78.1895C137.618 78.1895 141.689 74.1176 141.689 69.0947C141.689 64.0719 137.618 60 132.595 60C127.572 60 123.5 64.0719 123.5 69.0947C123.5 74.1176 127.572 78.1895 132.595 78.1895Z" fill="#9BA1A6"/>
<path d="M132.595 142.189C137.618 142.189 141.689 138.118 141.689 133.095C141.689 128.072 137.618 124 132.595 124C127.572 124 123.5 128.072 123.5 133.095C123.5 138.118 127.572 142.189 132.595 142.189Z" fill="#A0A0A0"/>
<path d="M196.595 174.189C201.618 174.189 205.689 170.118 205.689 165.095C205.689 160.072 201.618 156 196.595 156C191.572 156 187.5 160.072 187.5 165.095C187.5 170.118 191.572 174.189 196.595 174.189Z" fill="#282828"/>
<path d="M260.595 174.189C265.618 174.189 269.689 170.118 269.689 165.095C269.689 160.072 265.618 156 260.595 156C255.572 156 251.5 160.072 251.5 165.095C251.5 170.118 255.572 174.189 260.595 174.189Z" fill="#ECEEF0"/>
<path d="M292.595 206.189C297.618 206.189 301.689 202.118 301.689 197.095C301.689 192.072 297.618 188 292.595 188C287.572 188 283.5 192.072 283.5 197.095C283.5 202.118 287.572 206.189 292.595 206.189Z" fill="#ECEEF0"/>
<path d="M132.595 206.189C137.618 206.189 141.689 202.118 141.689 197.095C141.689 192.072 137.618 188 132.595 188C127.572 188 123.5 192.072 123.5 197.095C123.5 202.118 127.572 206.189 132.595 206.189Z" fill="#ECEEF0"/>
<path d="M68.5947 206.189C73.6176 206.189 77.6895 202.118 77.6895 197.095C77.6895 192.072 73.6176 188 68.5947 188C63.5718 188 59.5 192.072 59.5 197.095C59.5 202.118 63.5718 206.189 68.5947 206.189Z" fill="#ECEEF0"/>
<path d="M164.595 78.1895C169.618 78.1895 173.689 74.1176 173.689 69.0947C173.689 64.0719 169.618 60 164.595 60C159.572 60 155.5 64.0719 155.5 69.0947C155.5 74.1176 159.572 78.1895 164.595 78.1895Z" fill="#9BA1A6"/>
<path d="M196.226 78.9463C201.248 78.9463 205.32 74.8745 205.32 69.8516C205.32 64.8287 201.248 60.7568 196.226 60.7568C191.203 60.7568 187.131 64.8287 187.131 69.8516C187.131 74.8745 191.203 78.9463 196.226 78.9463Z" fill="#9BA1A6"/>
<path d="M228.595 78.1895C233.618 78.1895 237.689 74.1176 237.689 69.0947C237.689 64.0719 233.618 60 228.595 60C223.572 60 219.5 64.0719 219.5 69.0947C219.5 74.1176 223.572 78.1895 228.595 78.1895Z" fill="#9BA1A6"/>
<path d="M228.595 46.1895C233.618 46.1895 237.689 42.1176 237.689 37.0947C237.689 32.0719 233.618 28 228.595 28C223.572 28 219.5 32.0719 219.5 37.0947C219.5 42.1176 223.572 46.1895 228.595 46.1895Z" fill="#9BA1A6"/>
<path d="M260.595 78.1895C265.618 78.1895 269.689 74.1176 269.689 69.0947C269.689 64.0719 265.618 60 260.595 60C255.572 60 251.5 64.0719 251.5 69.0947C251.5 74.1176 255.572 78.1895 260.595 78.1895Z" fill="#9BA1A6"/>
<path d="M292.595 110.189C297.618 110.189 301.689 106.118 301.689 101.095C301.689 96.0719 297.618 92 292.595 92C287.572 92 283.5 96.0719 283.5 101.095C283.5 106.118 287.572 110.189 292.595 110.189Z" fill="#9BA1A6"/>
<path d="M228.595 110.189C233.618 110.189 237.689 106.118 237.689 101.095C237.689 96.0719 233.618 92 228.595 92C223.572 92 219.5 96.0719 219.5 101.095C219.5 106.118 223.572 110.189 228.595 110.189Z" fill="#9BA1A6"/>
<path d="M164.595 110.189C169.618 110.189 173.689 106.118 173.689 101.095C173.689 96.0719 169.618 92 164.595 92C159.572 92 155.5 96.0719 155.5 101.095C155.5 106.118 159.572 110.189 164.595 110.189Z" fill="#9BA1A6"/>
<path d="M260.595 46.1895C265.618 46.1895 269.689 42.1176 269.689 37.0947C269.689 32.0719 265.618 28 260.595 28C255.572 28 251.5 32.0719 251.5 37.0947C251.5 42.1176 255.572 46.1895 260.595 46.1895Z" fill="#9BA1A6"/>
<path d="M155.886 108.565H107.932V157.346H155.886V108.565Z" stroke="#3FCF8E" stroke-width="3.13" stroke-miterlimit="10"/>
<path d="M94.5 132.417L107.522 124.899L107.522 139.936L94.5 132.417Z" fill="#3FCF8E"/>
<path d="M150.925 113.526H112.893V152.385H150.925V113.526Z" fill="#3FCF8E"/>
<path d="M131.909 142.464C136.932 142.464 141.004 138.392 141.004 133.369C141.004 128.346 136.932 124.274 131.909 124.274C126.886 124.274 122.814 128.346 122.814 133.369C122.814 138.392 126.886 142.464 131.909 142.464Z" fill="#202425"/>
<path d="M187.5 165.095C187.5 170.118 191.572 174.189 196.595 174.189C201.618 174.189 205.689 170.118 205.689 165.095C205.689 160.072 201.618 156 196.595 156C191.572 156 187.5 160.072 187.5 165.095Z" fill="#ECEEF0"/>
</g>
<defs>
<clipPath id="clip0_1125_17722">
<rect width="360" height="210" fill="white" transform="translate(0.5)"/>
</clipPath>
</defs>
</svg>

<svg xmlns="http://www.w3.org/2000/svg" width="361" height="210" fill="none" viewBox="0 0 361 210"><g clip-path="url(#a)"><path fill="#fff" stroke="#eceef0" stroke-width=".827" d="M58.508 21.413h243.984c3.083 0 5.595 2.545 5.595 5.698v282.778c0 3.153-2.512 5.698-5.595 5.698H58.508c-3.083 0-5.595-2.545-5.595-5.698V27.111c0-3.153 2.512-5.698 5.595-5.698Z"/><path fill="#d7dbdf" d="M116.5 21h-32v32h32zM180.5 21h-32v32h32zM244.5 21h-32v32h32zM308.5 26.916V53h-32V21h25.879c3.377 0 6.121 2.647 6.121 5.916M116.5 85h-32v32h32zM180.5 85h-32v32h32zM244.5 85h-32v32h32zM308.5 85h-32v32h32zM116.5 149h-32v32h32zM180.5 149h-32v32h32zM244.5 149h-32v32h32zM308.5 149h-32v32h32zM84.5 181h-32v32h32zM148.5 181h-32v32h32zM212.5 181h-32v32h32zM276.5 181h-32v32h32zM84.5 117h-32v32h32zM148.5 117h-32v32h32zM212.5 117h-32v32h32zM276.5 117h-32v32h32zM84.5 53h-32v32h32zM148.5 53h-32v32h32zM212.5 53h-32v32h32zM276.5 53h-32v32h32z"/><path fill="#9ba1a6" d="M68.595 45.19a9.095 9.095 0 1 0 0-18.19 9.095 9.095 0 0 0 0 18.19M68.595 78.19a9.095 9.095 0 1 0 0-18.19 9.095 9.095 0 0 0 0 18.19M100.595 78.19a9.094 9.094 0 0 0 9.094-9.095 9.095 9.095 0 1 0-9.094 9.095M132.595 78.19a9.094 9.094 0 0 0 9.094-9.095 9.095 9.095 0 1 0-9.094 9.095"/><path fill="#a0a0a0" d="M132.595 142.189a9.093 9.093 0 0 0 9.094-9.094 9.095 9.095 0 1 0-9.094 9.094"/><path fill="#282828" d="M196.595 174.189a9.093 9.093 0 0 0 9.094-9.094 9.095 9.095 0 1 0-9.094 9.094"/><path fill="#eceef0" d="M260.595 174.189a9.093 9.093 0 0 0 9.094-9.094 9.095 9.095 0 1 0-9.094 9.094M292.595 206.189a9.093 9.093 0 0 0 9.094-9.094 9.095 9.095 0 1 0-9.094 9.094M132.595 206.189a9.093 9.093 0 0 0 9.094-9.094 9.095 9.095 0 1 0-9.094 9.094M68.595 206.189a9.095 9.095 0 1 0 0-18.188 9.095 9.095 0 0 0 0 18.188"/><path fill="#9ba1a6" d="M164.595 78.19a9.094 9.094 0 0 0 9.094-9.095 9.095 9.095 0 1 0-9.094 9.095M196.226 78.946a9.095 9.095 0 0 0 9.094-9.094 9.095 9.095 0 1 0-9.094 9.094M228.595 78.19a9.094 9.094 0 0 0 9.094-9.095 9.095 9.095 0 1 0-9.094 9.095M228.595 46.19a9.094 9.094 0 0 0 9.094-9.095 9.095 9.095 0 1 0-9.094 9.095M260.595 78.19a9.094 9.094 0 0 0 9.094-9.095 9.095 9.095 0 1 0-9.094 9.095M292.595 110.189a9.093 9.093 0 0 0 9.094-9.094 9.095 9.095 0 1 0-9.094 9.094M228.595 110.189a9.093 9.093 0 0 0 9.094-9.094 9.095 9.095 0 1 0-9.094 9.094M164.595 110.189a9.093 9.093 0 0 0 9.094-9.094 9.095 9.095 0 1 0-9.094 9.094M260.595 46.19a9.094 9.094 0 0 0 9.094-9.095 9.095 9.095 0 1 0-9.094 9.095"/><path stroke="#3fcf8e" stroke-miterlimit="10" stroke-width="3.13" d="M155.886 108.565h-47.954v48.781h47.954z"/><path fill="#3fcf8e" d="m94.5 132.417 13.022-7.518v15.037zM150.925 113.526h-38.032v38.859h38.032z"/><path fill="#202425" d="M131.909 142.464a9.095 9.095 0 1 0 0-18.19 9.095 9.095 0 0 0 0 18.19"/><path fill="#eceef0" d="M187.5 165.095a9.094 9.094 0 0 0 9.095 9.094 9.093 9.093 0 0 0 9.094-9.094 9.095 9.095 0 0 0-18.189 0"/></g><defs><clipPath id="a"><path fill="#fff" d="M.5 0h360v210H.5z"/></clipPath></defs></svg>
